!!!!SEGMENT: pl-kk--kk-i-388--004_anonim--credo-no-4.krn
!!!cenid: 18xx:1401
!!!COM: Anonim
!!!COM-rismID: pe30004985
!!!CDT:
!!!CNT:
!!!OTL: Credo No 4
!!!PDT:
!!!AGN: Sacred; Mass section
!!!SMS-siglum: PL-Kk
!!!SMS-shelfmark: Kk.I.388
!!!SMS-shelfwork: 004 W
!!!SMS-variant:
!!!SMS-altvar:
!!!NIFC-rismSourceID: 1001140238
!!!NIFC-rismChildID: 1001140642
!!!NIFC-islandoraID: pl-kk:6939
!!!URL-pdf-islandora: https://repozytorium.nifc.pl/islandora/object/pl-kk%3A6939/datastream/PDF/view
!!!URL-scan: https://polish.musicsources.pl/pl/lokalizacje/galeria/rekopisy/5998 @EN{Scan on Polish Music Sources Website} @PL{Skany w portalu Dziedzictwo Muzyki Polskiej w otwartym dostępie}
!!!ONB-nifc:
!!!AIN: 1 alto 1 bass 1 soprn 1 tenor
!!!key:
**kern	**text	**kern	**text	**kern	**text	**kern	**text
*part4	*part4	*part3	*part3	*part2	*part2	*part1	*part1
*staff4	*staff4	*staff3	*staff3	*staff2	*staff2	*staff1	*staff1
*Ibass	*	*Itenor	*	*Ialto	*	*Isoprn	*
*I"Basso.	*	*I"Tenore.	*	*I"Alto.	*	*I"Soprano.	*
*I'B	*	*I'T	*	*I'A	*	*I'S	*
*clefF4	*	*clefC4	*	*clefC3	*	*clefC1	*
*k[b-]	*	*k[b-]	*	*k[b-]	*	*k[b-]	*
*F:	*	*F:	*	*F:	*	*F:	*
*M2/2	*	*M2/2	*	*M2/2	*	*M2/2	*
*met(c|)	*	*met(c|)	*	*met(c|)	*	*met(c|)	*
=1	=1	=1	=1	=1	=1	=1	=1
*2\right	*	*2\right	*	*2\right	*	*2\right	*
!	!	!	!	!	!	!LO:TX:t=P:problem=all\right&colon; global	!
!LO:TX:a:t=No 4. Credo.	!	!LO:TX:a:t=No 4. Credo.	!	!LO:TX:a:t=No 4. Credo.	!	!LO:TX:a:t=No 4. Credo.	!
2F\	Pa-	2c\	Pa-	2f\	Pa-	2a\	Pa-
4F\	-trem	4c\	-trem	4f\	-trem	4a\	-trem
4F\	om-	4c\	om-	4f\	om-	4a\	om-
=2	=2	=2	=2	=2	=2	=2	=2
2F\	-ni-	2B-\	-ni-	2g\	-ni-	2b-\	-ni-
2E\	-po-	2c\	-po-	2g\	-po-	2b-\	-po-
=3	=3	=3	=3	=3	=3	=3	=3
2F\	-ten-	2c\	-ten-	2f\	-ten-	2b-\	-ten-
4F\	-tem	4c\	-tem	4f\	-tem	4a\	-tem
4F\	fac-	4c\	fac-	4f\	fac-	4a\	fac-
=4	=4	=4	=4	=4	=4	=4	=4
2F\	-to-	2Bn\	-to-	2d\	-to-	2g\	-to-
2E\	-rem	2c\	-rem	2g\	-rem	2g\	-rem
=5	=5	=5	=5	=5	=5	=5	=5
2F\	ce-	2c\	ce-	2f\	ce-	4a\	ce-
.	.	.	.	.	.	4bn\	-li
4F\	-li	4c\	-li	4f\	-li	2cc\	et
4E\	et	4c\	et	4g\	et	.	.
=6	=6	=6	=6	=6	=6	=6	=6
1D	ter-	1d	ter-	1f	ter-	2cc\	ter-
.	.	.	.	.	.	2bn\	.
!LO:LB:g=original	!	!LO:LB:g=original	!	!LO:LB:g=original	!	!LO:LB:g=original	!
=7	=7	=7	=7	=7	=7	=7	=7
2C/	-re,	1G	-re,	2e\	-re,	2cc\	-re,
4C/	vi-	.	.	4e\	vi-	4cc\	vi-
4C/	-si-	.	.	4e\	-si-	4cc\	-si-
=8	=8	=8	=8	=8	=8	=8	=8
!	!	!LO:TX:a:t=1.	!	!	!	!	!
2D\	bi-	1r	.	2f\	-bi-	2cc\	-bi-
4E\	-li-	.	.	4g\	-li-	4b-X\	-li-
4E\	-um	.	.	4g\	-um	4b-\	-um,
=9	=9	=9	=9	=9	=9	=9	=9
2F\	-om-	1c	-et	2f\	om-	2b-\	om-
4F\	-ni-	.	.	4f\	-ni-	4a\	-ni-
4F\	-um,	.	.	4f\	-um,	4a\	-um
=10	=10	=10	=10	=10	=10	=10	=10
2.BB-/	et	1d	in-	2.f\	et	2.b-\	et
4BB-/	in-	.	.	4f\	in-	4b-\	in-
=11	=11	=11	=11	=11	=11	=11	=11
2C/	-vi-	2c\	-vi-	2e\	-vi-	2b-\	-vi-
2F\	-si-	2c\	-si-	2f\	-si-	2a\	-si-
=12	=12	=12	=12	=12	=12	=12	=12
2.C/	-bi-	2.c\	-bi-	2f\	-bi-	2.g\	-bi-
.	.	.	.	2e\	-li-	.	.
4C/	-li-	4c\	-li-	.	.	4g\	-li-
=13	=13	=13	=13	=13	=13	=13	=13
1FF	-um.	1c	-um,	1f	-um,	1a	-um.
=14	=14	=14	=14	=14	=14	=14	=14
!LO:TX:a:t=10.	!	!	!	!LO:TX:a:t=1.	!	!	!
00r	.	00r	.	1r	.	4f/	et
.	.	.	.	.	.	4g/	in
!	!	!	!	!	!	!LO:LB:g=original	!
.	.	.	.	.	.	4a\	u-
.	.	.	.	.	.	4b-\	-num
!	!	!	!	!LO:LB:g=original	!	!	!
=15	=15	=15	=15	=15	=15	=15	=15
.	.	.	.	4c\	et	2cc\	Do-
.	.	.	.	4d\	in	.	.
.	.	.	.	4e\	u-	4cc\	-mi-
.	.	.	.	4f\	-num	4cc\	-num
=16	=16	=16	=16	=16	=16	=16	=16
.	.	.	.	2g\	Do-	2bn\	Je-
.	.	.	.	4e\	-mi-	2cc\	-sum
.	.	.	.	4e\	-num	.	.
=17	=17	=17	=17	=17	=17	=17	=17
.	.	.	.	2f\	Je-	4a\	Je-
.	.	.	.	.	.	4bn\	.
.	.	.	.	2e\	-sum	2cc\	-sum
=18	=18	=18	=18	=18	=18	=18	=18
00r	.	00r	.	1d	Chri-	2cc\	Chri-
.	.	.	.	.	.	2bn\	.
=19	=19	=19	=19	=19	=19	=19	=19
.	.	.	.	2c\	-stum	2cc\	-stum
.	.	.	.	2f\	Fi-	[2a\	Fi-
=20	=20	=20	=20	=20	=20	=20	=20
.	.	.	.	2d\	[[li]]-	2a\]	.
.	.	.	.	4g\	-li-	4b-X\	-li-
.	.	.	.	4g\	-um	4b-\	-um
=21	=21	=21	=21	=21	=21	=21	=21
.	.	.	.	2c\	De-	2b-\	De-
.	.	.	.	2f\	-i	2a\	-i
!	!	!	!	!	!	!LO:LB:g=original	!
=22	=22	=22	=22	=22	=22	=22	=22
0r	.	1r	.	4d\	u-	2b-\	u-
.	.	.	.	4e\	.	.	.
.	.	.	.	2f\	-ni-	2a\	-ni-
!	!	!	!	!LO:LB:g=original	!	!	!
=23	=23	=23	=23	=23	=23	=23	=23
.	.	4c\	et	2f\	-ge-	2g\	-ge-
.	.	4c\	ex	.	.	.	.
.	.	4c\	Pa-	2e\	-ni-	2cc\	-ni-
.	.	4c\	-tre	.	.	.	.
!LO:LB:g=original	!	!	!	!	!	!	!
=24	=24	=24	=24	=24	=24	=24	=24
4F\	et	2A/	na-	1f	-tum,	1cc	-tum,
4F\	ex	.	.	.	.	.	.
4F\	Pa-	2F/	-tum	.	.	.	.
4F\	-tre	.	.	.	.	.	.
!	!	!LO:LB:g=original	!	!	!	!	!
=25	=25	=25	=25	=25	=25	=25	=25
!	!	!	!	!LO:TX:a:t=1.	!	!	!
2E\	na-	2.G/	an-	1r	.	4cc\	et
.	.	.	.	.	.	4cc\	ex
4C/	-tum	.	.	.	.	4cc\	Pa-
4C/	ex	4G/	-te	.	.	4cc\	-tre
=26	=26	=26	=26	=26	=26	=26	=26
2F\	Pa-	2A\	an-	4f\	et	2a\	na-
.	.	.	.	4f\	ex	.	.
2D\	-tre	2Bn\	-te	4f\	Pa-	2f/	-tum
.	.	.	.	4f\	-tre	.	.
=27	=27	=27	=27	=27	=27	=27	=27
4C/	na-	1c	om-	4e\	na-	2r	.
4D/	-tum	.	.	4e\	-tum	.	.
4E/	an-	.	.	4e\	an-	4g\	an-
4C/	-te	.	.	4e\	-te	4g\	-te
=28	=28	=28	=28	=28	=28	=28	=28
2F\	om-	2c\	-ni-	2f\	om-	2a\	om-
4C/	-ni-	2c\	-a	4e\	-ni-	4g\	-ni-
4C/	-a	.	.	4e\	-a	4g\	-a
=29	=29	=29	=29	=29	=29	=29	=29
2.GG/	se-	2c\	se-	2.d\	se-	2.g\	se-
.	.	2Bn\	cu-	.	.	.	.
4GG/	-cu-	.	.	4d\	-cu-	4g\	-cu-
!	!	!	!	!	!	!LO:LB:g=original	!
=30	=30	=30	=30	=30	=30	=30	=30
2C/	-la,	2c\	-la,	2c\	-la	2g\	-la,
!	!	!	!	!LO:LB:g=original	!	!	!
2c\	De-	2c\	De-	2e\	De-	2g\	De-
!LO:LB:g=original	!	!	!	!	!	!	!
=31	=31	=31	=31	=31	=31	=31	=31
2A\	-um	2c\	-um	2f\	-um	2a\	-um
2E\	de	2c\	de	2g\	de	2g\	de
=32	=32	=32	=32	=32	=32	=32	=32
1F	De-	1c	De-	1f	De-	1a	De-
=33	=33	=33	=33	=33	=33	=33	=33
1C	-o,	2c\	-o,	2e\	-o,	2g\	-o,
.	.	2c\	lu-	2e\	lu-	2g\	lu-
=34	=34	=34	=34	=34	=34	=34	=34
!LO:TX:a:t=3.	!	!	!	!	!	!	!
0r	.	2A\	-men	2f\	-men,	2a\	-men
!	!	!LO:LB:g=original	!	!	!	!	!
.	.	2d\	lu-	2f\	lu-	2a\	de
=35	=35	=35	=35	=35	=35	=35	=35
.	.	2B-\	-men	2f\	-men	2b-\	lu-
.	.	2A\	de	2f\	de	2cc\	.
=36	=36	=36	=36	=36	=36	=36	=36
1r	.	2G/	lu-	2f\	lu-	2.b-\	.
.	.	2c\	-mi-	2e\	-mi-	.	.
.	.	.	.	.	.	4b-\	-mi-
=37	=37	=37	=37	=37	=37	=37	=37
2.F\	De-	1c	-ne,	1f	-ne,	1a	-ne,
4F\	-um	.	.	.	.	.	.
=38	=38	=38	=38	=38	=38	=38	=38
2.C/	De-	2.c\	De-	2.e\	De-	2.g\	De-
4C/	-um	4c\	-um	4e\	-um	4g\	-um
!	!	!	!	!	!	!LO:LB:g=original	!
=39	=39	=39	=39	=39	=39	=39	=39
2F\	ve-	2c\	ve-	2f\	ve-	2a\	ve-
!	!	!	!	!LO:LB:g=original	!	!	!
4F\	-rum	4c\	-rum	4f\	-rum	4a\	-rum
4F\	de	4c\	de	4f\	de	4a\	de
=40	=40	=40	=40	=40	=40	=40	=40
2BB-/	De-	2d\	De-	2f\	De-	2b-\	De-
4F\	-o	4c\	-o,	4f\	-o,	4a\	-o,
4F\	de	4c\	de	4f\	de	4a\	de
=41	=41	=41	=41	=41	=41	=41	=41
2C/	De-	2c\	De-	2e\	De-	2g\	De-
2F\	-o	2c\	-o	2f\	-o	2a\	-o
!LO:LB:g=original	!	!	!	!	!	!	!
=42	=42	=42	=42	=42	=42	=42	=42
!	!	!	!	!	!	!LO:N:vis=1.	!
1C	ve-	1c	ve-	2f\	ve-	1g	ve-
.	.	.	.	2e\	.	.	.
=43	=43	=43	=43	=43	=43	=43	=43
!	!	!	!	!	!	!LO:TX:a:t=43.	!
!LO:TX:a:t=43.	!	!LO:TX:a:t=43.	!	!LO:TX:a:t=43.	!	!LO:N:vis=1.	!
1FF	-ro.	1c	-ro.	1f	-ro.	1a	-ro.
!	!	!LO:LB:g=original	!	!	!	!	!
=44||	=44||	=44||	=44||	=44||	=44||	=44||	=44||
*M3/4	*	*M3/4	*	*M3/4	*	*M3/4	*
4D\	Et	4d\	Et	4f\	Et	4a\	Et
4D\	in-	4d\	in-	4f\	in-	4a\	in-
4D\	-car-	4d\	-car-	4f\	-car-	4a\	-car-
=45	=45	=45	=45	=45	=45	=45	=45
4.AA/	-na-	4.d\	-na-	4.e\	-na-	4.a\	-na-
8AA/	-tus	8d\	-tus	8e\	-tus	8a\	-tus
8AA/	est	8c#X\	est	8e\	est	8a\	est
8AA/	de	8c#\	de	8e\	de	8a\	de
!	!	!	!	!LO:LB:g=original	!	!LO:LB:g=original	!
=46	=46	=46	=46	=46	=46	=46	=46
2D\	Spi-	2d\	Spi-	2f\	Spi-	2a\	Spi-
4AA/	-ri-	4c#X\	-ri-	4e\	-ri-	4a\	-ri-
=47	=47	=47	=47	=47	=47	=47	=47
4D/	-tu	4d\	-tu,	4f\	-tu	4a\	-tu,
2BB-X/	San-	2d\	san-	2d\	san-	4a\	san-
.	.	.	.	.	.	4g\	.
=48	=48	=48	=48	=48	=48	=48	=48
4AA/	-cto,	4c#X\	-cto,	4e\	-cto,	4a\	-cto,
4A\	ex	4c#\	ex	4e\	ex	4a\	ex
4A\	Ma-	4c#\	Ma-	4e\	Ma-	4a\	Ma-
=49	=49	=49	=49	=49	=49	=49	=49
2F\	-ri-	2d\	-ri-	2f\	-ri-	2a\	-ri-
4B-X\	-a	4d\	-a	4f\	-a,	4b-X\	-a,
!LO:LB:g=original	!	!LO:LB:g=original	!	!	!	!	!
=50	=50	=50	=50	=50	=50	=50	=50
4.E\	ex	4.d\	ex	4.e\	ex	4.g\	ex
8E\	Ma-	8d\	Ma-	8e\	Ma-	8g\	Ma-
!	!	!LO:TX:t=P:problem=8d poprawione na 8c#	!	!	!	!	!
8A\	-ri-	8c#X\	-ri-	8e\	-ri-	8a\	-ri-
!	!	!LO:TX:t=P:problem=8d poprawione na 8c#	!	!	!	!	!
8A\	-a	8c#\	-a	8e\	-a	8a\	-a
=51	=51	=51	=51	=51	=51	=51	=51
4.D\	Vir-	4.d\	Vir-	4.f\	Vir-	4.a\	Vir-
8D\	-gi-	8d\	-gi-	8f\	-gi-	8a\	-gi-
8D\	-ne,	8d\	-ne,	8f\	-ne	8a\	-ne,
8D\	et	8d\	et	8f\	et	8a\	et
!	!	!	!	!	!	!LO:LB:g=original	!
=52	=52	=52	=52	=52	=52	=52	=52
4.AA/	Ho-	4.c#X\	Ho-	4.e\	Ho-	4.a\	Ho-
8AA/	-mo	8c#\	-mo,	8e\	-mo	8a\	-mo
4AA/	et	4c#\	et	4e\	et	4a\	et
!	!	!	!	!LO:LB:g=original	!	!	!
=53	=53	=53	=53	=53	=53	=53	=53
2D\	Ho-	2d\	Ho-	2f\	Ho-	2g#X\	Ho-
4AA/	-mo	4cn\	-mo	4e\	-mo	[4a\	-mo
=54	=54	=54	=54	=54	=54	=54	=54
!	!	!	!	!LO:N:vis=2.	!	!	!
4AA/	fa-	4c\	fa-	2e\	fa-	4a\]	.
4.E\	.	4.Bn\	.	.	.	4a\	fa-
!	!	!	!	!LO:N:vis=8	!	!	!
.	.	.	.	4e\	ctus	4g#X\	-ctus
8E\	-ctus	8B\	-ctus	.	.	.	.
=55	=55	=55	=55	=55	=55	=55	=55
2.AA/	est.	2.c#X\	est.	2.e\	est.	2.a\	est.
!LO:LB:g=original	!	!LO:LB:g=original	!	!	!	!	!
=56||	=56||	=56||	=56||	=56||	=56||	=56||	=56||
4.A\	Cru-	4.cn\	Cru-	4.e\	Cru-	4.a\	Cru-
8A\	-ci-	8c\	-ci-	8e\	-ci-	8a\	-ci-
8A\	-fi-	8c\	-fi-	8e\	-fi-	8a\	-fi-
8A\	-xus	8c\	-xus	8e\	-xus	8a\	-xus
=57	=57	=57	=57	=57	=57	=57	=57
4.F\	e-	4.d\	e-	4.f\	e-	4.a\	e-
8F\	-ti-	8d\	-ti-	8f\	-ti-	8a\	-ti-
8D\	-am	8d\	-am,	8f\	-am	8a\	-am
8D\	pro	8d\	pro	8f\	pro	8a\	pro
=58	=58	=58	=58	=58	=58	=58	=58
4A\	no-	4c#X\	no-	4e\	no-	4a\	no-
!	!	!	!	!	!	!LO:LB:g=original	!
4A\	-bis,	4c#\	-bis,	4e\	-bis,	4a\	-bis,
4A\	sub	4c#\	sub	4e\	sub	4a\	sub
=59	=59	=59	=59	=59	=59	=59	=59
4.D\	Pon-	4.d\	Pon-	4.f\	Pon-	4.a\	Pon-
8D\	-ti-	8d\	-ti-	8f\	-ti-	8a\	-ti-
4G\	-o	4d\	-o	4g\	-o	4a\	-o
!	!	!	!	!LO:LB:g=original	!	!	!
=60	=60	=60	=60	=60	=60	=60	=60
4F\	Pi-	4d\	Pi-	4a\	Pi-	4a\	Pi-
2B-\	-la-	2d\	-la-	2b-X\	-la-	4a\	-la-
.	.	.	.	.	.	4g\	.
=61	=61	=61	=61	=61	=61	=61	=61
4A\	-to,	4c#X\	-to,	4e\	-to,	4a\	-to,
4A\	pas-	4c#\	pas-	4e\	pas-	4a\	pas-
4d\	-sus	4c#\	-sus	4f\	-sus	4a\	-sus
!LO:LB:g=original	!	!LO:LB:g=original	!	!	!	!	!
=62	=62	=62	=62	=62	=62	=62	=62
4.G\	pas-	4.d\	pas-	4.g\	pas-	4.b-\	pas-
8G\	-sus	8d\	-sus	8g\	-sus	8b-\	-sus
!	!	!	!	!	!LO:MO:mod=et	!	!
4A\	et	4c#X\	et	4g\	est	4a\	et
=63	=63	=63	=63	=63	=63	=63	=63
4D\	se-	4d\	se-	4f\	se-	4a\	se-
4.AA/	-pul-	4d\	-pul-	4.e\	-pul-	4.a\	-pul-
.	.	4c#X\	tus	.	.	.	.
8AA/	-tus	.	.	8e\	-tus	8a\	-tus
=64	=64	=64	=64	=64	=64	=64	=64
!LO:TX:a:t=21.	!	!LO:TX:b:t=21.	!	!LO:TX:a:t=21.	!	!LO:TX:a:t=21.	!
2.D\	est.	2.d\	est.	2.f\	est.	2.a\	est.
!	!	!	!	!	!	!LO:LB:g=original	!
=65||	=65||	=65||	=65||	=65||	=65||	=65||	=65||
*M2/2	*	*M2/2	*	*M2/2	*	*M2/2	*
*met(c|)	*	*met(c|)	*	*met(c|)	*	*met(c|)	*
4r	.	4r	.	4r	.	4r	.
4F\	Et	4cn\	Et	4f\	Et	4a\	Et
4F\	re-	4c\	re-	4f\	re-	4a\	re-
4F\	-sur-	4c\	-sur-	4f\	-sur-	4a\	-sur-
=66	=66	=66	=66	=66	=66	=66	=66
4G\	-re-	4B-\	-re-	2f\	-re-	2b-\	-re-
4G\	-xit	4B-\	-xit,	.	.	.	.
4C/	re-	4c\	re-	2e\	-xit	2b-\	-xit
4C/	-sur-	4c\	-sur-	.	.	.	.
!	!	!	!	!LO:LB:g=original	!	!	!
=67	=67	=67	=67	=67	=67	=67	=67
2F\	-re-	2c\	-re-	4f\	re-	4a\	re-
.	.	.	.	4f\	-sur-	4a\	-sur-
2F\	-xit	2c\	-xit	4f\	-re-	4a\	-re-
.	.	.	.	4f\	-xit	4a\	-xit
!	!	!LO:LB:g=original	!	!	!	!	!
=68	=68	=68	=68	=68	=68	=68	=68
2F\	ter-	2r	.	2g\	ter-	2bn\	ter-
!LO:LB:g=original	!	!	!	!	!	!	!
4E\	-ti-	4c\	re-	4g\	-ti-	4cc\	-ti-
4E\	-a	4c\	-sur-	4g\	-a	4cc\	-a
=69	=69	=69	=69	=69	=69	=69	=69
1D	di-	4F/	-re-	1f	di-	2cc\	di-
.	.	4F/	-xit	.	.	.	.
.	.	4F/	re-	.	.	2bn\	.
.	.	4F/	-sur-	.	.	.	.
=70	=70	=70	=70	=70	=70	=70	=70
2C/	-e,	2c\	-re-	2e\	-e,	2cc\	-e
2F\	se-	4c\	-xit	2f\	se-	2a\	se-
.	.	4c\	se-	.	.	.	.
!	!	!	!	!	!	!LO:LB:g=original	!
=71	=71	=71	=71	=71	=71	=71	=71
1BB-	-cun-	1d	-cun-	2f\	-cun-	2b-\	-cun-
.	.	.	.	4f\	-dum	4b-\	-dum
.	.	.	.	4f\	se-	4b-\	se-
=72	=72	=72	=72	=72	=72	=72	=72
2C/	-dum	2c\	-dum	2e\	-cun-	2b-\	-cun-
2F\	scrip-	2c\	scrip-	4f\	-dum	4a\	-dum
.	.	.	.	4f\	scrip-	4a\	scrip-
=73	=73	=73	=73	=73	=73	=73	=73
1C	-tu-	1c	-tu-	2f\	-tu-	1g	-tu-
.	.	.	.	2e\	.	.	.
!	!	!	!	!LO:LB:g=original	!	!	!
=74	=74	=74	=74	=74	=74	=74	=74
1FF	-ras.	1c	-ras,	1f	-ras,	1a	-ras,
=75	=75	=75	=75	=75	=75	=75	=75
!LO:TX:a:t=7.	!	!	!	!	!	!	!
00r	.	2F/	et	2f\	et	2a\	et
.	.	2F/	as-	2f\	as-	2a\	as-
=76	=76	=76	=76	=76	=76	=76	=76
.	.	2c\	-cen-	2f\	-cen-	2g\	-cen-
!	!	!LO:LB:g=original	!	!	!	!	!
.	.	4c\	-dit,	4e\	-dit	4g\	-dit
.	.	4c\	as-	4e\	as-	4g\	as-
=77	=77	=77	=77	=77	=77	=77	=77
.	.	2A/	-cen-	4f\	-cen-	2a\	-cen-
.	.	.	.	4c\	.	.	.
.	.	4F/	-dit	4f\	-dit	4a\	-dit
.	.	4F/	in	4f\	in	4a\	in
=78	=78	=78	=78	=78	=78	=78	=78
!	!	!	!	!	!LO:MO:mod=ce-	!	!
.	.	2c\	ce-	2e\	cel-	2g\	ce-
.	.	2c\	-lum	2e\	-lum,	2g\	-lum
!	!	!	!	!	!	!LO:LB:g=original	!
=79	=79	=79	=79	=79	=79	=79	=79
0r	.	2A\	se-	2f\	se-	2a\	se-
.	.	2d\	-det	2f\	-det	2a\	-det
=80	=80	=80	=80	=80	=80	=80	=80
.	.	2G/	se-	2f\	se-	2b-\	se-
.	.	4c\	-det	4e\	-det,	4cc\	-det
.	.	4c\	ad	4e\	ad	4b-\	ad
!	!	!	!	!LO:LB:g=original	!	!	!
=81	=81	=81	=81	=81	=81	=81	=81
1r	.	2F/	dex-	2f\	dex-	4a\	dex-
.	.	.	.	.	.	4bn\	-te-
.	.	4c\	-te-	4e\	-te-	2cc\	-ram
.	.	4c\	-ram	4e\	-ram	.	.
=82	=82	=82	=82	=82	=82	=82	=82
2r	.	1G	Pa-	1d	Pa-	2cc\	Pa-
2G\	et	.	.	.	.	2bn\	.
=83	=83	=83	=83	=83	=83	=83	=83
2C/	i-	2G/	-tris,	2e\	-tris,	2cc\	-tris,
2c\	-te-	2c\	et	2e\	et	2g\	et
!LO:LB:g=original	!	!LO:LB:g=original	!	!	!	!	!
=84	=84	=84	=84	=84	=84	=84	=84
2A\	rum	4c\	i-	4f\	i-	4a\	i-
.	.	4c\	-te-	4f\	-te-	4a\	-te-
2E\	ven-	4c\	-rum	4g\	-rum	4g\	-rum
.	.	4c\	ven-	4g\	ven-	4g\	ven-
=85	=85	=85	=85	=85	=85	=85	=85
2.F\	-tu-	2.c\	-tu-	2.f\	-tu-	2.a\	-tu-
4F\	-rus	4c\	-rus	4f\	-rus	4a\	-rus
!	!	!	!	!	!	!LO:PB:g=original	!
=86	=86	=86	=86	=86	=86	=86	=86
2C/	est,	2c\	est	2e\	est,	2g\	est,
2C/	ven-	2c\	ven-	2e\	ven-	2g\	ven-
=87	=87	=87	=87	=87	=87	=87	=87
2.F\	-tu-	2.c\	-tu-	2.f\	-tu-	2.a\	-tu-
4F\	-rus	4c\	-rus	4f\	-rus	4a\	-rus
=88	=88	=88	=88	=88	=88	=88	=88
2B-\	est	2d\	est	2f\	est,	2b-\	est
2F\	cum	2c\	cum	2f\	cum	2a\	cum
!	!	!	!	!LO:PB:g=original	!	!	!
=89	=89	=89	=89	=89	=89	=89	=89
2.G\	glo-	2.B-\	glo-	2f\	glo-	2g\	glo-
.	.	.	.	2e\	-ri-	2cc\	-ri-
4G\	-ri-	4B-\	-ri-	.	.	.	.
=90	=90	=90	=90	=90	=90	=90	=90
2F\	-a,	1c	-a,	1f	-a,	2a\	-a,
2F\	cum	.	.	.	.	2a\	cum
=91	=91	=91	=91	=91	=91	=91	=91
!	!	!LO:TX:a:t=3.	!	!	!	!	!
2c\	glo-	0r	.	2r	.	2g\	glo-
4c\	-ri-	.	.	2c\	cum	4g\	-ri-
4c\	-a	.	.	.	.	4g\	-a
=92	=92	=92	=92	=92	=92	=92	=92
4A\	ju-	.	.	2f\	glo-	4a\	ju-
4A\	-di-	.	.	.	.	4a\	-di-
!LO:LB:g=original	!	!	!	!	!	!	!
4d\	-ca-	.	.	4f\	-ri-	4a\	-ca-
4d\	-re	.	.	4f\	-a	4a\	-re
=93	=93	=93	=93	=93	=93	=93	=93
2G\	vi-	1r	.	4f\	ju-	2.b-\	vi-
.	.	.	.	4f\	-di-	.	.
2c\	-vos	.	.	4e\	-ca-	.	.
.	.	.	.	4e\	-re	4b-\	-vos
!	!	!LO:LB:g=original	!	!	!	!LO:LB:g=original	!
=94	=94	=94	=94	=94	=94	=94	=94
2A\	vi-	2r	.	2f\	vi-	2a\	vi-
4E\	-vos	2c\	-mor-	4g\	-vos	4g\	-vos
4E\	et	.	.	4g\	et	4g\	et
=95	=95	=95	=95	=95	=95	=95	=95
2.F\	mor-	2.c\	.	2.f\	mor-	2.a\	mor-
4F\	-tu-	4c\	-tu-	4f\	-tu-	4a\	-tu-
=96	=96	=96	=96	=96	=96	=96	=96
2C/	-os,	2c\	-os,	2e\	-os,	2g\	-os,
!	!	!	!	!LO:LB:g=original	!	!	!
4C/	cu-	4c\	cu-	4e\	cu-	4g\	cu-
4C/	-jus	4c\	-jus	4e\	-ius	4g\	-ius
=97	=97	=97	=97	=97	=97	=97	=97
2F\	re-	2c\	re-	2f\	re-	2a\	re-
4F\	-gni	4c\	-gni	4f\	-gni	4a\	-gni
4F\	non	4c\	non	4f\	non	4a\	non
=98	=98	=98	=98	=98	=98	=98	=98
2BB-/	e-	2d\	e-	2f\	e-	2b-\	e-
2F\	-rit	2c\	-rit	2f\	-rit	2a\	-rit
=99	=99	=99	=99	=99	=99	=99	=99
1C	fi-	1c	fi-	2f\	fi-	1g	fi-
.	.	.	.	2e\	.	.	.
=100	=100	=100	=100	=100	=100	=100	=100
1F	-nis,	1c	-nis,	2f\	-nis,	2a\	-nis,
.	.	.	.	2r	.	2cc\	et
!LO:LB:g=original	!	!	!	!	!	!	!
=101	=101	=101	=101	=101	=101	=101	=101
!	!	!LO:TX:a:t=5	!	!	!	!	!
00r	.	00r	.	2r	.	2a\	vi-
.	.	.	.	2f\	-et	4f/	-tam
.	.	.	.	.	.	4f/	ven-
!	!	!	!	!	!	!LO:LB:g=original	!
=102	=102	=102	=102	=102	=102	=102	=102
.	.	.	.	2d\	vi-	2b-\	-tu-
.	.	.	.	4e\	-tam	4b-\	-ri
.	.	.	.	4e\	ven-	4b-\	ven-
=103	=103	=103	=103	=103	=103	=103	=103
.	.	.	.	2f\	-tu-	2b-\	-tu-
.	.	.	.	2f\	-ri	2a\	-ri
!	!	!	!	!LO:LB:g=original	!	!	!
=104	=104	=104	=104	=104	=104	=104	=104
.	.	.	.	2f\	se-	2g\	se-
.	.	.	.	4e\	-cu-	4cc\	-cu-
.	.	.	.	4e\	-li	4cc\	-li
=105	=105	=105	=105	=105	=105	=105	=105
1r	.	1r	.	1d	a-	2cc\	a-
.	.	.	.	.	.	2bn\	.
=106	=106	=106	=106	=106	=106	=106	=106
2r	.	2r	.	2e\	.	2cc\	-men
2F\	a-	2c\	a-	2f\	-men	2a\	a-
!	!	!LO:LB:g=original	!	!	!	!	!
=107	=107	=107	=107	=107	=107	=107	=107
2C/	.	2d\	-men	4d\	a-	2b-\	.
.	.	.	.	4e\	.	.	.
2F\	-men	2c\	a-	2f\	-men	2a\	-men
=108	=108	=108	=108	=108	=108	=108	=108
1C	a-	2c\	-men	2f\	a-	1g	a-
.	.	2c\	a-	2e\	.	.	.
=109	=109	=109	=109	=109	=109	=109	=109
!LO:TX:a:t=46.	!	!LO:TX:a:t=46.	!	!LO:TX:a:t=46.	!	!LO:TX:a:t=46.	!
!LO:N:vis=0	!	!LO:N:vis=0	!	!LO:N:vis=0	!	!LO:N:vis=0	!
1FF	-men.	1c	-men.	1f	-men.	1a	-men.
==	==	==	==	==	==	==	==
*-	*-	*-	*-	*-	*-	*-	*-
!!!system-decoration: [(s1,s2,s3,s4)]
!!!ENC: Marta Lawrence
!!!END: 2021-01-17
!!!ENC: Katarzyna Serwa
!!!END: 2021-01-15
!!!YEC: Copyright 2022 Narodowy Instytut Fryderyka Chopina (https://polishscores.org)
!!!YEM: License CC-BY-4.0 (https://creativecommons.org/licenses/by/4.0)
